X:05b
T:Cherokee Shuffle
S:Jim Coon to CoMandoList TOW
M:4/4
L:1/8
Q:1/4=190
K:A
z2E2 F2G2|AGAB cA=c_c|ABAF E2EF|AGAB cdec|!
fceg fceg|fcfg a2af|eagf ecfe|cfed cABG|!
A2AB cdec|efff fagf|efed cBAc|efff fagf|!
e2e2 e2e2|efff fagf|eagf edcB|AGAB cdec|!
[cf][cf][cf][cf] -[cf][cf][cf]|efed cABG|A4
